icon-themes/elementary_svg/sfx2/res/symphony/morebutton.svg

<svg height="11" width="11" xmlns="http://www.w3.org/2000/svg" xmlns:xlink="http://www.w3.org/1999/xlink"><linearGradient id="a" gradientUnits="userSpaceOnUse" x1="10.127912" x2="9.984243" y1="12.048073" y2="3.95193"><stop offset="0" stop-color="#e5e5e5"/><stop offset="1" stop-color="#ababab"/></linearGradient><linearGradient id="b" gradientUnits="userSpaceOnUse" x1="3.941811" x2="3.941811" y1="0" y2="16.004715"><stop offset="0" stop-color="#aaa"/><stop offset="1" stop-color="#8c8c8c"/></linearGradient><linearGradient id="c" gradientUnits="userSpaceOnUse" x1="7.941811" x2="7.941811" y1="0" y2="16.000105"><stop offset="0" stop-color="#f6f6f6"/><stop offset="1" stop-color="#ccc"/></linearGradient><g transform="matrix(.68690433 0 0 .68781462 .012582 .01017)"><path d="m6.9375.5c-.2484169 0-.4375.18908218-.4375.4375v1.25c-.5539029.1422005-1.051164.3718783-1.53125.65625l-.90625-.90625c-.1756569-.1756579-.449342-.1756579-.625 0l-1.5 1.5c-.175657.1756579-.175657.4493421 0 .625l.90625.90625c-.2843711.4800856-.514049.9773468-.65625 1.53125h-1.25c-.24841699 0-.4375.1890821-.4375.4375v2.125c.00000001.2484178.189083.4375.4375.4375h1.25c.1422009.553903.371879 1.051164.65625 1.53125l-.90625.90625c-.175657.175658-.175657.449342 0 .625l1.5 1.5c.1756579.175658.449342.175658.625 0l.90625-.90625c.4800861.284372.977347.51405 1.53125.65625v1.25c.0000001.248418.189083.4375.4375.4375h2.125c.2484176 0 .4375-.189082.4375-.4375v-1.25c.553903-.1422 1.051164-.371878 1.53125-.65625l.90625.90625c.175658.175658.449342.175658.625 0l1.5-1.5c.175658-.175658.175658-.449342 0-.625l-.90625-.90625c.284372-.480086.51405-.977347.65625-1.53125h1.25c.248418 0 .4375-.1890826.4375-.4375v-2.125c0-.2484178-.189083-.4375-.4375-.4375h-1.25c-.1422-.5539032-.371878-1.0511644-.65625-1.53125l.90625-.90625c.175658-.1756579.175658-.449342 0-.625l-1.5-1.5c-.175658-.1756579-.449342-.1756579-.625 0l-.90625.90625c-.480086-.2843717-.977347-.5140495-1.53125-.65625v-1.25c-.0000004-.24841782-.189082-.4375-.4375-.4375zm1.0625 5.5c1.104 0 2 .896 2 2s-.896 2-2 2-2-.896-2-2 .896-2 2-2z" display="block" fill="url(#c)" stroke="url(#b)" stroke-linejoin="round"/><path d="m8 3.465116c-2.5005771 0-4.5348837 2.034307-4.5348837 4.534884s2.0343066 4.534884 4.5348837 4.534884c2.500576-.000001 4.534884-2.034307 4.534884-4.534884s-2.034308-4.534884-4.534884-4.534884zm0 2.093024c1.347907 0 2.44186 1.093953 2.44186 2.44186s-1.093953 2.44186-2.44186 2.44186-2.4418605-1.093953-2.4418605-2.44186 1.0939535-2.44186 2.4418605-2.44186z" opacity=".05"/><path d="m8.0000001 4c-2.2056004 0-4.0000002 1.7944001-4.0000002 4.0000008 0 2.2055992 1.7943998 3.9999992 4.0000002 3.9999992 2.2055999 0 3.9999999-1.7944 3.9999999-3.9999992 0-2.2056007-1.7944-4.0000008-3.9999999-4.0000008z" fill="none" stroke="url(#a)"/></g></svg>

<?xml version="1.0" encoding="UTF-8" standalone="no"?>
<svg
   xmlns:dc="http://purl.org/dc/elements/1.1/"
   xmlns:cc="http://creativecommons.org/ns#"
   xmlns:rdf="http://www.w3.org/1999/02/22-rdf-syntax-ns#"
   xmlns:svg="http://www.w3.org/2000/svg"
   xmlns="http://www.w3.org/2000/svg"
   xmlns:xlink="http://www.w3.org/1999/xlink"
   xmlns:sodipodi="http://sodipodi.sourceforge.net/DTD/sodipodi-0.dtd"
   xmlns:inkscape="http://www.inkscape.org/namespaces/inkscape"
   version="1.0"
   width="11"
   height="11"
   id="svg2457"
   inkscape:version="0.91 r13725"
   sodipodi:docname="morebutton.svg">
  <sodipodi:namedview
     pagecolor="#ffffff"
     bordercolor="#666666"
     borderopacity="1"
     objecttolerance="10"
     gridtolerance="10"
     guidetolerance="10"
     inkscape:pageopacity="0"
     inkscape:pageshadow="2"
     inkscape:window-width="2560"
     inkscape:window-height="1377"
     id="namedview22"
     showgrid="false"
     inkscape:zoom="32"
     inkscape:cx="9.6863027"
     inkscape:cy="4.7804608"
     inkscape:window-x="0"
     inkscape:window-y="34"
     inkscape:window-maximized="1"
     inkscape:current-layer="svg2457" />
  <metadata
     id="metadata23">
    <rdf:RDF>
      <cc:Work
         rdf:about="">
        <dc:format>image/svg+xml</dc:format>
        <dc:type
           rdf:resource="http://purl.org/dc/dcmitype/StillImage" />
        <dc:title></dc:title>
      </cc:Work>
    </rdf:RDF>
  </metadata>
  <defs
     id="defs2459">
    <linearGradient
       id="linearGradient5128">
      <stop
         id="stop5130"
         style="stop-color:#e5e5e5;stop-opacity:1"
         offset="0" />
      <stop
         id="stop5132"
         style="stop-color:#ababab;stop-opacity:1"
         offset="1" />
    </linearGradient>
    <linearGradient
       x1="86.132919"
       y1="105.105"
       x2="84.63858"
       y2="20.895"
       id="linearGradient3260"
       xlink:href="#linearGradient5128"
       gradientUnits="userSpaceOnUse"
       gradientTransform="matrix(0.09614231,0,0,0.09614231,1.8468935,1.9430362)" />
    <linearGradient
       id="linearGradient3397">
      <stop
         id="stop3399"
         style="stop-color:#aaaaaa;stop-opacity:1"
         offset="0" />
      <stop
         id="stop3401"
         style="stop-color:#8c8c8c;stop-opacity:1"
         offset="1" />
    </linearGradient>
    <linearGradient
       x1="21"
       y1="0"
       x2="21"
       y2="16.004715"
       id="linearGradient3264"
       xlink:href="#linearGradient3397"
       gradientUnits="userSpaceOnUse"
       gradientTransform="translate(-17.058189,0)" />
    <linearGradient
       x1="63.9995"
       y1="3.1001"
       x2="63.9995"
       y2="122.8994"
       id="linearGradient3309"
       gradientUnits="userSpaceOnUse">
      <stop
         id="stop3311"
         style="stop-color:#f6f6f6;stop-opacity:1"
         offset="0" />
      <stop
         id="stop3313"
         style="stop-color:#cccccc;stop-opacity:1"
         offset="1" />
    </linearGradient>
    <linearGradient
       x1="25"
       y1="0"
       x2="25"
       y2="16.000105"
       id="linearGradient3262"
       xlink:href="#linearGradient3309"
       gradientUnits="userSpaceOnUse"
       gradientTransform="translate(-17.058189,0)" />
  </defs>
  <g
     id="layer1"
     transform="matrix(0.68690433,0,0,0.68781462,0.01258178,0.0101698)">
    <g
       id="g2479">
      <path
         d="M 6.9375,0.5 C 6.6890831,0.5 6.5,0.68908218 6.5,0.9375 l 0,1.25 C 5.9460971,2.3297005 5.448836,2.5593783 4.96875,2.84375 L 4.0625,1.9375 c -0.1756569,-0.1756579 -0.449342,-0.1756579 -0.625,0 l -1.5,1.5 c -0.175657,0.1756579 -0.175657,0.4493421 0,0.625 L 2.84375,4.96875 C 2.5593789,5.4488356 2.329701,5.9460968 2.1875,6.5 l -1.25,0 C 0.68908301,6.5 0.5,6.6890821 0.5,6.9375 l 0,2.125 c 1e-8,0.2484178 0.189083,0.4375 0.4375,0.4375 l 1.25,0 c 0.1422009,0.553903 0.371879,1.051164 0.65625,1.53125 L 1.9375,11.9375 c -0.175657,0.175658 -0.175657,0.449342 0,0.625 l 1.5,1.5 c 0.1756579,0.175658 0.449342,0.175658 0.625,0 L 4.96875,13.15625 C 5.4488361,13.440622 5.946097,13.6703 6.5,13.8125 l 0,1.25 c 1e-7,0.248418 0.189083,0.4375 0.4375,0.4375 l 2.125,0 C 9.3109176,15.5 9.5,15.310918 9.5,15.0625 l 0,-1.25 c 0.553903,-0.1422 1.051164,-0.371878 1.53125,-0.65625 l 0.90625,0.90625 c 0.175658,0.175658 0.449342,0.175658 0.625,0 l 1.5,-1.5 c 0.175658,-0.175658 0.175658,-0.449342 0,-0.625 L 13.15625,11.03125 C 13.440622,10.551164 13.6703,10.053903 13.8125,9.5 l 1.25,0 C 15.310918,9.5 15.5,9.3109174 15.5,9.0625 l 0,-2.125 C 15.5,6.6890822 15.310917,6.5 15.0625,6.5 l -1.25,0 C 13.6703,5.9460968 13.440622,5.4488356 13.15625,4.96875 L 14.0625,4.0625 c 0.175658,-0.1756579 0.175658,-0.449342 0,-0.625 l -1.5,-1.5 c -0.175658,-0.1756579 -0.449342,-0.1756579 -0.625,0 L 11.03125,2.84375 C 10.551164,2.5593783 10.053903,2.3297005 9.5,2.1875 l 0,-1.25 C 9.4999996,0.68908218 9.310918,0.5 9.0625,0.5 l -2.125,0 z M 8,6 c 1.104,0 2,0.896 2,2 0,1.104 -0.896,2 -2,2 C 6.896,10 6,9.104 6,8 6,6.896 6.896,6 8,6 Z"
         id="path2426"
         style="display:block;overflow:visible;visibility:visible;fill:url(#linearGradient3262);fill-opacity:1;fill-rule:nonzero;stroke:url(#linearGradient3264);stroke-width:0.99999994;stroke-linecap:butt;stroke-linejoin:round;stroke-miterlimit:4;stroke-dasharray:none;stroke-dashoffset:0;stroke-opacity:1;marker:none;enable-background:accumulate"
         inkscape:connector-curvature="0" />
      <path
         d="M 8,3.465116 C 5.4994229,3.465116 3.4651163,5.499423 3.4651163,8 3.4651163,10.500577 5.4994229,12.534884 8,12.534884 10.500576,12.534883 12.534884,10.500577 12.534884,8 12.534884,5.499423 10.500576,3.465116 8,3.465116 Z M 8,5.55814 c 1.347907,0 2.44186,1.093953 2.44186,2.44186 0,1.347907 -1.093953,2.44186 -2.44186,2.44186 C 6.652093,10.44186 5.5581395,9.347907 5.5581395,8 5.5581395,6.652093 6.652093,5.55814 8,5.55814 Z"
         id="path3315"
         style="opacity:0.05;fill:#000000;fill-opacity:1;stroke:none"
         inkscape:connector-curvature="0" />
      <path
         d="M 8.0000001,4 C 5.7943997,4 3.9999999,5.7944001 3.9999999,8.0000008 3.9999999,10.2056 5.7943997,12 8.0000001,12 10.2056,12 12,10.2056 12,8.0000008 12,5.7944001 10.2056,4 8.0000001,4 Z"
         id="path28"
         style="fill:none;stroke:url(#linearGradient3260);stroke-width:1;stroke-miterlimit:4;stroke-dasharray:none"
         inkscape:connector-curvature="0" />
    </g>
  </g>
</svg>
